X: 19184
T: Isabeaux S'Y Promene
R: jig
M: 6/8
K: Eminor
|:E3 GFA|G3 F3|EFG E2D|E3E2z:|
|:~E3 B2c|BGE A2 [1 B|A2G F2z:|2 F|DFA GFG|E3E2z||

